**kern	**kern	**kern
*staff3	*staff2	*staff1
=1-	=1-	=1-
*clefG2	*clefF4	*clefG2
*k[]	*k[f#c#g#]	*k[f#c#g#]
*A:	*A:	*A:
*M3/4	*M3/4	*M3/4
2.r	2AA/	2r
.	[4E\	4r
=2	=2	=2
2.r	8E\L]	2.r
.	8F#\J	.
.	8E\L	.
.	8c#\J	.
.	[4E\	.
=3	=3	=3
2.r	8E\L]	2.r
.	8Fn\J	.
.	8Gn\	.
.	4E\	.
.	8D\	.
=4	=4	=4
2.r	2C#/	8e/ 8a/ 8ee/
.	.	8r
.	.	8e/ 8a/ 8ee/
.	.	8r
.	16BB/LL	8e/ 8a/ 8ee/
.	16C#/	.
.	16BB/	8r
.	16C#/JJ	.
=5	=5	=5
2.r	2BB-/	8e/ 8a/ 8ffn/
.	.	8r
.	.	8e/ 8a/ 8ff/
.	.	8r
.	16BB-/LL	8e/ 8a/ 8ff/
.	16Cn/	.
.	16BB-/	8r
.	16C/JJ	.
=6	=6	=6
!!linebreak:original
2.r	4.AA/	8r
.	.	16fn/LL
.	.	16b-/JJ
.	.	4ggn\
.	8E-\	.
.	8D/L	4ffn\
.	8Cn/J	.
=7	=7	=7
2.r	2A-\	8e-/ 8ccn/ 8ee-/
.	.	8r
.	.	8e-/ 8cc/ 8ee-/
.	.	8r
.	16E-\LL	8e-/ 8cc/ 8ee-/
.	16Fn\	.
.	16E-\	8r
.	16F\JJ	.
=8	=8	=8
2.r	2G#\	8d/ 8b-/ 8dd-/
.	.	8r
.	.	8d/ 8b-/ 8dd-/
.	.	8r
.	16D\LL	8d/ 8b-/ 8dd-/
.	16E\	.
.	16D\	8r
.	16E\JJ	.
=9	=9	=9
2.r	4.Fn\	8e/ 8a/ 8ccn/
.	.	8r
.	.	8e/ 8a/ 8cc/
.	8C#/	8r
.	4F\	8e/ 8a/ 8cc/
.	.	8r
=10	=10	=10
!!linebreak:original
2.r	4.Fn\	8d-/L 8a-/ 8ccn/
.	.	8aa-/J
.	.	8gg-\L
.	8C#/	8aa-\J
.	[4F\	8ffn\L
.	.	8ggn\J
=11	=11	=11
2.r	8F\L]	8e-/ 8cc-/ 8ee-/
.	8Gn\J	8r
.	8E-\L	8e-/ 8cc-/ 8ee-/
.	8Fn\J	8r
.	16D-\LL	8e/ 8cc-/ 8ee-/
.	16En\	.
.	16D-\	8r
.	16E\JJ	.
=12	=12	=12
2.r	2D-\	4r
.	.	8e-/ 8b/ 8dd/
.	.	8r
.	16Cn/LL	4r
.	16Dn/	.
.	16C/	.
.	16D/JJ	.
=13	=13	=13
!!pagebreak:original
2.r	4.C#/	8r
.	.	8ccn\
.	.	4ccc-\
.	4.e-\	.
.	.	16bb-\LL
.	.	16aa-\
.	.	16ggn\
.	.	16ee-\JJ
=14	=14	=14
2.r	8r	4.aa-\
.	8BB-/	.
.	[2BB-\ [2d-\	.
.	.	4gg-\
.	.	8cc#\
=15	=15	=15
2.r	2.BB-\] 2.d-\]	8dd-\L
.	.	8b-\J
.	.	8ee-\L
.	.	8ccn\J
.	.	8ffn\L
.	.	8dd-\J
=16	=16	=16
2.r	2.D-\ 2.G#\ 2.d-\	8gg-\L
.	.	8ee-\J
.	.	8aa\L
.	.	8ffn\J
.	.	8bb\L
.	.	8ggn\J
=17	=17	=17
!!linebreak:original
2.r	4AA\ 4E\ 4c#\	8cc#\L 8aa\ 8ccc#\
.	.	8cc#\J 8aa\ 8ccc#\
.	4AA/	8cc#\L 8aa\ 8ccc#\
.	.	8cc#\J 8aa\ 8ccc#\
.	16GG#/LL	8cc#\L 8aa\ 8ccc#\
.	16AA/	.
.	16GG#/	8cc#\J 8aa\ 8ccc#\
.	16AA/JJ	.
=18	=18	=18
2.r	2F#\	8cc#\L 8aa\ 8ccc#\
.	.	8cc#\J 8aa\ 8ccc#\
.	.	8cc#\L 8aa\ 8ccc#\
.	.	8cc#\J 8aa\ 8ccc#\
.	4E\	8cc#\L 8aa\ 8ccc#\
.	.	8cc#\J 8aa\ 8ccc#\
=19	=19	=19
*M2/4	*M2/4	*M2/4
2r	4r	8ccn\L 8aa\ 8cccn\
.	.	8cc\J 8aa\ 8ccc\
.	16GG#/LL	8cc\L 8aa\ 8ccc\
.	16AA/	.
.	16GG#/	8cc\J 8aa\ 8ccc\
.	16AA/JJ	.
=20	=20	=20
2r	4Fn\	8ccn\L 8aa\ 8cccn\
.	.	8cc\J 8aa\ 8ccc\
.	[4E\	8cc\L 8aa\ 8ccc\
.	.	8cc\J 8aa\ 8ccc\
=21	=21	=21
*M3/4	*M3/4	*M3/4
2.r	8E\L]	2.r
.	16Fn\L	.
.	16D\JJ	.
.	8FFn/L	.
.	8GGn/J	.
.	8AA/L	.
.	8BB-/J	.
=22	=22	=22
!!linebreak:original
2.r	8EE-/L	2.r
.	16GG#/L	.
.	16EEn/JJ	.
.	8GGGn/L	.
.	8AAA-/J	.
.	8AAAn/L	.
.	8BBB-/J	.
=23	=23	=23
8r	2BBB/	8r
8r	.	8a/
8a/L	.	4ff#\
8a/J	.	.
8a/L	16CCn/LL	4ee\
.	16DD/	.
8a/J	16CC/	.
.	16DD/JJ	.
=24	=24	=24
8a/L	2BBB-/	4gg#\
8a/J	.	.
8a/L	.	4ff#\
8a/J	.	.
8a/L	16BBBn/LL	[4aa\
.	16CC#/	.
8a/J	16BBB/	.
.	16CC#/JJ	.
=25	=25	=25
8a/L	2.AAA/	2.aa\]
8a/J	.	.
8a/L	.	.
8a/J	.	.
8a/L	.	.
8a/J	.	.
=26	=26	=26
!!linebreak:original
8a/L	2E\ 2c#\ 2e\	2.bb\
8a/J	.	.
8a/L	.	.
8a/J	.	.
8a/L	4bb\	.
8a/J	.	.
=27	=27	=27
2.r	2.eee\	8a/L
.	.	8a/J
.	.	8a/L
.	.	8a/J
.	.	4a/
==	==	==
*-	*-	*-
